IMB-X-Files/The-Ambassadors-Assets/660c257f886feb38d01942e5_BG.svg

<svg fill="none" height="170" viewBox="0 0 446 170" width="446" xmlns="http://www.w3.org/2000/svg" xmlns:xlink="http://www.w3.org/1999/xlink"><filter id="a" color-interpolation-filters="sRGB" filterUnits="userSpaceOnUse" height="430.617" width="910.189" x="-326.388" y="-257.325"><feFlood flood-opacity="0" result="BackgroundImageFix"/><feBlend in="SourceGraphic" in2="BackgroundImageFix" mode="normal" result="shape"/><feGaussianBlur result="effect1_foregroundBlur_3142_798" stdDeviation="23.9577"/></filter><filter id="b" color-interpolation-filters="sRGB" filterUnits="userSpaceOnUse" height="430.635" width="910.102" x="-337.447" y="-226.314"><feFlood flood-opacity="0" result="BackgroundImageFix"/><feBlend in="SourceGraphic" in2="BackgroundImageFix" mode="normal" result="shape"/><feGaussianBlur result="effect1_foregroundBlur_3142_798" stdDeviation="23.9577"/></filter><filter id="c" color-interpolation-filters="sRGB" filterUnits="userSpaceOnUse" height="344.867" width="686.257" x="-119.117" y="-184.109"><feFlood flood-opacity="0" result="BackgroundImageFix"/><feBlend in="SourceGraphic" in2="BackgroundImageFix" mode="normal" result="shape"/><feGaussianBlur result="effect1_foregroundBlur_3142_798" stdDeviation="26.6197"/></filter><filter id="d" color-interpolation-filters="sRGB" filterUnits="userSpaceOnUse" height="299.332" width="654.855" x="-110.047" y="-95.0112"><feFlood flood-opacity="0" result="BackgroundImageFix"/><feBlend in="SourceGraphic" in2="BackgroundImageFix" mode="normal" result="shape"/><feGaussianBlur result="effect1_foregroundBlur_3142_798" stdDeviation="23.9577"/></filter><linearGradient id="e"><stop offset="0" stop-color="#a282ff"/><stop offset="1" stop-color="#a282ff" stop-opacity="0"/></linearGradient><radialGradient id="f" cx="0" cy="0" gradientTransform="matrix(-543.19015615 -362.15323465 548.60849717 -822.85261247 461.157 334.397)" gradientUnits="userSpaceOnUse" r="1" xlink:href="#e"/><linearGradient id="g"><stop offset="0" stop-color="#ff279c"/><stop offset="1" stop-color="#ff279c" stop-opacity="0"/></linearGradient><radialGradient id="h" cx="0" cy="0" gradientTransform="matrix(-534.97817318 -168.53426603 167.8353664 -532.75965672 512.327 127.733)" gradientUnits="userSpaceOnUse" r="1" xlink:href="#g"/><linearGradient id="i"><stop offset="0" stop-color="#6f9fff"/><stop offset="1" stop-color="#ff6fce" stop-opacity="0"/></linearGradient><radialGradient id="j" cx="0" cy="0" gradientTransform="matrix(-385.01070881 -244.5709411 244.01919628 -384.14213604 535.885 120.664)" gradientUnits="userSpaceOnUse" r="1" xlink:href="#i"/><linearGradient id="k"><stop offset="0" stop-color="#ffcf54"/><stop offset="1" stop-color="#ffcf54" stop-opacity="0"/></linearGradient><radialGradient id="l" cx="0" cy="0" gradientTransform="matrix(-265.06070735 -62.81891298 62.54010523 -263.88429448 440.323 78.6064)" gradientUnits="userSpaceOnUse" r="1" xlink:href="#k"/><linearGradient id="m"><stop offset="0" stop-color="#dcff93"/><stop offset="1" stop-color="#dcff93" stop-opacity="0"/></linearGradient><radialGradient id="n" cx="0" cy="0" gradientTransform="matrix(-108.76388133 -72.39396268 72.24435862 -108.53911785 523.949 124.246)" gradientUnits="userSpaceOnUse" r="1" xlink:href="#m"/><linearGradient id="o"><stop offset="0" stop-color="#fff"/><stop offset="1" stop-color="#fff" stop-opacity="0"/></linearGradient><radialGradient id="p" cx="0" cy="0" gradientTransform="matrix(-216.1656159 -91.3163772 90.990667 -215.3945894 519.551 125.565)" gradientUnits="userSpaceOnUse" r="1" xlink:href="#o"/><radialGradient id="q" cx="0" cy="0" gradientTransform="matrix(-543.09348105 -362.11616485 548.72265244 -822.9615918 449.991 365.452)" gradientUnits="userSpaceOnUse" r="1" xlink:href="#e"/><radialGradient id="r" cx="0" cy="0" gradientTransform="matrix(-534.90878478 -168.48161974 167.83240604 -532.84760973 501.184 158.763)" gradientUnits="userSpaceOnUse" r="1" xlink:href="#g"/><radialGradient id="s" cx="0" cy="0" gradientTransform="matrix(-384.94224209 -244.54630841 244.07067717 -384.19354728 524.74 151.69)" gradientUnits="userSpaceOnUse" r="1" xlink:href="#i"/><radialGradient id="t" cx="0" cy="0" gradientTransform="matrix(-369.06053441 -168.48627049 167.97171793 -367.93343341 506.015 153.22)" gradientUnits="userSpaceOnUse" r="1" xlink:href="#k"/><radialGradient id="u" cx="0" cy="0" gradientTransform="matrix(-108.74596885 -72.38477889 72.25733504 -108.55450589 512.805 155.274)" gradientUnits="userSpaceOnUse" r="1" xlink:href="#m"/><radialGradient id="v" cx="0" cy="0" gradientTransform="matrix(-216.13564039 -91.29482366 90.99715614 -215.43092836 508.408 156.594)" gradientUnits="userSpaceOnUse" r="1" xlink:href="#o"/><radialGradient id="w" cx="0" cy="0" gradientTransform="matrix(-386.69348782 -257.83399667 390.70169913 -585.96540676 460.677 256.364)" gradientUnits="userSpaceOnUse" r="1" xlink:href="#e"/><radialGradient id="x" cx="0" cy="0" gradientTransform="matrix(-153.89252603 -65.00358294 64.79190826 -153.39139748 502.271 107.653)" gradientUnits="userSpaceOnUse" r="1" xlink:href="#o"/><radialGradient id="y" cx="0" cy="0" gradientTransform="matrix(-543.09348105 -362.11616485 548.72265244 -822.9615918 449.993 365.452)" gradientUnits="userSpaceOnUse" r="1" xlink:href="#e"/><radialGradient id="z" cx="0" cy="0" gradientTransform="matrix(-534.90783098 -168.48131931 167.83210561 -532.84665593 501.186 158.763)" gradientUnits="userSpaceOnUse" r="1"><stop offset="0" stop-color="#27fff2"/><stop offset="1" stop-color="#277eff" stop-opacity="0"/></radialGradient><radialGradient id="A" cx="0" cy="0" gradientTransform="matrix(-384.94224209 -244.54630841 244.07067717 -384.19354728 524.742 151.69)" gradientUnits="userSpaceOnUse" r="1"><stop offset="0" stop-color="#6f9fff"/><stop offset="1" stop-color="#6fcbff" stop-opacity="0"/></radialGradient><radialGradient id="B" cx="0" cy="0" gradientTransform="matrix(-203.50925532 -55.02153083 54.80020864 -202.69064645 403.063 66.2064)" gradientUnits="userSpaceOnUse" r="1" xlink:href="#k"/><clipPath id="C"><path d="m0 0h446v170h-446z" transform="matrix(-1 0 0 1 446 0)"/></clipPath><g clip-path="url(#C)"><g filter="url(#a)"><path d="m271.589-.539334c135.641-10.149466 222.244 79.715134 248.591 125.916334l15.705-4.713-100.092-330.073-714.266 214.34293s64.121 8.03907 220.7178-8.94471c156.5967-16.98372 159.7932 16.15828 329.3442 3.471446z" fill="url(#f)"/><path d="m271.589-.539334c135.641-10.149466 222.244 79.715134 248.591 125.916334l15.705-4.713-100.092-330.073-714.266 214.34293s64.121 8.03907 220.7178-8.94471c156.5967-16.98372 159.7932 16.15828 329.3442 3.471446z" fill="url(#h)"/><path d="m271.589-.539334c135.641-10.149466 222.244 79.715134 248.591 125.916334l15.705-4.713-100.092-330.073-714.266 214.34293s64.121 8.03907 220.7178-8.94471c156.5967-16.98372 159.7932 16.15828 329.3442 3.471446z" fill="url(#j)"/><path d="m271.589-.539334c135.641-10.149466 222.244 79.715134 248.591 125.916334l15.705-4.713-100.092-330.073-714.266 214.34293s64.121 8.03907 220.7178-8.94471c156.5967-16.98372 159.7932 16.15828 329.3442 3.471446z" fill="url(#l)"/><path d="m271.589-.539334c135.641-10.149466 222.244 79.715134 248.591 125.916334l15.705-4.713-100.092-330.073-714.266 214.34293s64.121 8.03907 220.7178-8.94471c156.5967-16.98372 159.7932 16.15828 329.3442 3.471446z" fill="url(#n)"/><path d="m271.589-.539334c135.641-10.149466 222.244 79.715134 248.591 125.916334l15.705-4.713-100.092-330.073-714.266 214.34293s64.121 8.03907 220.7178-8.94471c156.5967-16.98372 159.7932 16.15828 329.3442 3.471446z" fill="url(#p)"/></g><g filter="url(#b)"><path d="m260.483 30.5108c135.631-10.1682 222.215 79.6932 248.553 125.8942l15.704-4.715-100.039-330.089-714.232 214.4555c60.304-18.107 64.114 8.0314 220.6994-8.9744 156.5853-17.0057 159.777 16.1388 329.3146 3.4287z" fill="url(#q)"/><path d="m260.483 30.5108c135.631-10.1682 222.215 79.6932 248.553 125.8942l15.704-4.715-100.039-330.089-714.232 214.4555c60.304-18.107 64.114 8.0314 220.6994-8.9744 156.5853-17.0057 159.777 16.1388 329.3146 3.4287z" fill="url(#r)"/><path d="m260.483 30.5108c135.631-10.1682 222.215 79.6932 248.553 125.8942l15.704-4.715-100.039-330.089-714.232 214.4555c60.304-18.107 64.114 8.0314 220.6994-8.9744 156.5853-17.0057 159.777 16.1388 329.3146 3.4287z" fill="url(#s)"/><path d="m260.483 30.5108c135.631-10.1682 222.215 79.6932 248.553 125.8942l15.704-4.715-100.039-330.089-714.232 214.4555c60.304-18.107 64.114 8.0314 220.6994-8.9744 156.5853-17.0057 159.777 16.1388 329.3146 3.4287z" fill="url(#t)"/><path d="m260.483 30.5108c135.631-10.1682 222.215 79.6932 248.553 125.8942l15.704-4.715-100.039-330.089-714.232 214.4555c60.304-18.107 64.114 8.0314 220.6994-8.9744 156.5853-17.0057 159.777 16.1388 329.3146 3.4287z" fill="url(#u)"/><path d="m260.483 30.5108c135.631-10.1682 222.215 79.6932 248.553 125.8942l15.704-4.715-100.039-330.089-714.232 214.4555c60.304-18.107 64.114 8.0314 220.6994-8.9744 156.5853-17.0057 159.777 16.1388 329.3146 3.4287z" fill="url(#v)"/></g><g filter="url(#c)"><path d="m325.744 17.8789c96.572-7.24 158.221 56.7431 176.975 89.6391l11.181-3.357-71.23-235.03-508.5476 152.6965s45.6507 5.7185 157.1426-6.3899c111.492-12.10846 113.765 11.4912 234.479 2.4413z" fill="url(#w)"/><path d="m325.744 17.8789c96.572-7.24 158.221 56.7431 176.975 89.6391l11.181-3.357-71.23-235.03-508.5476 152.6965s45.6507 5.7185 157.1426-6.3899c111.492-12.10846 113.765 11.4912 234.479 2.4413z" fill="url(#x)"/></g><g filter="url(#d)"><path d="m260.485 30.5104 236.407 125.8946v-203.5007l-559.0236 5.031z" fill="url(#y)"/><path d="m260.485 30.5104 236.407 125.8946v-203.5007l-559.0236 5.031z" fill="url(#z)"/><path d="m260.485 30.5104 236.407 125.8946v-203.5007l-559.0236 5.031z" fill="url(#A)"/><path d="m260.485 30.5104 236.407 125.8946v-203.5007l-559.0236 5.031z" fill="url(#B)"/></g></g></svg>

<svg width="446" height="170" viewBox="0 0 446 170" fill="none" xmlns="http://www.w3.org/2000/svg">
    <g clip-path="url(#clip0_3142_798)">
        <g filter="url(#filter0_f_3142_798)">
            <path
                d="M271.589 -0.539334C407.23 -10.6888 493.833 79.1758 520.18 125.377L535.885 120.664L435.793 -209.409L-278.473 4.93393C-278.473 4.93393 -214.352 12.973 -57.7552 -4.01078C98.8415 -20.9945 102.038 12.1475 271.589 -0.539334Z"
                fill="url(#paint0_radial_3142_798)" />
            <path
                d="M271.589 -0.539334C407.23 -10.6888 493.833 79.1758 520.18 125.377L535.885 120.664L435.793 -209.409L-278.473 4.93393C-278.473 4.93393 -214.352 12.973 -57.7552 -4.01078C98.8415 -20.9945 102.038 12.1475 271.589 -0.539334Z"
                fill="url(#paint1_radial_3142_798)" />
            <path
                d="M271.589 -0.539334C407.23 -10.6888 493.833 79.1758 520.18 125.377L535.885 120.664L435.793 -209.409L-278.473 4.93393C-278.473 4.93393 -214.352 12.973 -57.7552 -4.01078C98.8415 -20.9945 102.038 12.1475 271.589 -0.539334Z"
                fill="url(#paint2_radial_3142_798)" />
            <path
                d="M271.589 -0.539334C407.23 -10.6888 493.833 79.1758 520.18 125.377L535.885 120.664L435.793 -209.409L-278.473 4.93393C-278.473 4.93393 -214.352 12.973 -57.7552 -4.01078C98.8415 -20.9945 102.038 12.1475 271.589 -0.539334Z"
                fill="url(#paint3_radial_3142_798)" />
            <path
                d="M271.589 -0.539334C407.23 -10.6888 493.833 79.1758 520.18 125.377L535.885 120.664L435.793 -209.409L-278.473 4.93393C-278.473 4.93393 -214.352 12.973 -57.7552 -4.01078C98.8415 -20.9945 102.038 12.1475 271.589 -0.539334Z"
                fill="url(#paint4_radial_3142_798)" />
            <path
                d="M271.589 -0.539334C407.23 -10.6888 493.833 79.1758 520.18 125.377L535.885 120.664L435.793 -209.409L-278.473 4.93393C-278.473 4.93393 -214.352 12.973 -57.7552 -4.01078C98.8415 -20.9945 102.038 12.1475 271.589 -0.539334Z"
                fill="url(#paint5_radial_3142_798)" />
        </g>
        <g style="mix-blend-mode:overlay" filter="url(#filter1_f_3142_798)">
            <path
                d="M260.483 30.5108C396.114 20.3426 482.698 110.204 509.036 156.405L524.74 151.69L424.701 -178.399L-289.531 36.0565C-229.227 17.9495 -225.417 44.0879 -68.8316 27.0821C87.7537 10.0764 90.9454 43.2209 260.483 30.5108Z"
                fill="url(#paint6_radial_3142_798)" />
            <path
                d="M260.483 30.5108C396.114 20.3426 482.698 110.204 509.036 156.405L524.74 151.69L424.701 -178.399L-289.531 36.0565C-229.227 17.9495 -225.417 44.0879 -68.8316 27.0821C87.7537 10.0764 90.9454 43.2209 260.483 30.5108Z"
                fill="url(#paint7_radial_3142_798)" />
            <path
                d="M260.483 30.5108C396.114 20.3426 482.698 110.204 509.036 156.405L524.74 151.69L424.701 -178.399L-289.531 36.0565C-229.227 17.9495 -225.417 44.0879 -68.8316 27.0821C87.7537 10.0764 90.9454 43.2209 260.483 30.5108Z"
                fill="url(#paint8_radial_3142_798)" />
            <path
                d="M260.483 30.5108C396.114 20.3426 482.698 110.204 509.036 156.405L524.74 151.69L424.701 -178.399L-289.531 36.0565C-229.227 17.9495 -225.417 44.0879 -68.8316 27.0821C87.7537 10.0764 90.9454 43.2209 260.483 30.5108Z"
                fill="url(#paint9_radial_3142_798)" />
            <path
                d="M260.483 30.5108C396.114 20.3426 482.698 110.204 509.036 156.405L524.74 151.69L424.701 -178.399L-289.531 36.0565C-229.227 17.9495 -225.417 44.0879 -68.8316 27.0821C87.7537 10.0764 90.9454 43.2209 260.483 30.5108Z"
                fill="url(#paint10_radial_3142_798)" />
            <path
                d="M260.483 30.5108C396.114 20.3426 482.698 110.204 509.036 156.405L524.74 151.69L424.701 -178.399L-289.531 36.0565C-229.227 17.9495 -225.417 44.0879 -68.8316 27.0821C87.7537 10.0764 90.9454 43.2209 260.483 30.5108Z"
                fill="url(#paint11_radial_3142_798)" />
        </g>
        <g style="mix-blend-mode:overlay" filter="url(#filter2_f_3142_798)">
            <path
                d="M325.744 17.8789C422.316 10.6389 483.965 74.622 502.719 107.518L513.9 104.161L442.67 -130.869L-65.8776 21.8275C-65.8776 21.8275 -20.2269 27.546 91.265 15.4376C202.757 3.32914 205.03 26.9288 325.744 17.8789Z"
                fill="url(#paint12_radial_3142_798)" />
            <path
                d="M325.744 17.8789C422.316 10.6389 483.965 74.622 502.719 107.518L513.9 104.161L442.67 -130.869L-65.8776 21.8275C-65.8776 21.8275 -20.2269 27.546 91.265 15.4376C202.757 3.32914 205.03 26.9288 325.744 17.8789Z"
                fill="url(#paint13_radial_3142_798)" />
        </g>
        <g style="mix-blend-mode:overlay" filter="url(#filter3_f_3142_798)">
            <path d="M260.485 30.5104L496.892 156.405L496.892 -47.0957L-62.1316 -42.0647L260.485 30.5104Z"
                fill="url(#paint14_radial_3142_798)" />
            <path d="M260.485 30.5104L496.892 156.405L496.892 -47.0957L-62.1316 -42.0647L260.485 30.5104Z"
                fill="url(#paint15_radial_3142_798)" />
            <path d="M260.485 30.5104L496.892 156.405L496.892 -47.0957L-62.1316 -42.0647L260.485 30.5104Z"
                fill="url(#paint16_radial_3142_798)" />
            <path d="M260.485 30.5104L496.892 156.405L496.892 -47.0957L-62.1316 -42.0647L260.485 30.5104Z"
                fill="url(#paint17_radial_3142_798)" />
        </g>
    </g>
    <defs>
        <filter id="filter0_f_3142_798" x="-326.388" y="-257.325" width="910.189" height="430.617"
            filterUnits="userSpaceOnUse" color-interpolation-filters="sRGB">
            <feFlood flood-opacity="0" result="BackgroundImageFix" />
            <feBlend mode="normal" in="SourceGraphic" in2="BackgroundImageFix" result="shape" />
            <feGaussianBlur stdDeviation="23.9577" result="effect1_foregroundBlur_3142_798" />
        </filter>
        <filter id="filter1_f_3142_798" x="-337.447" y="-226.314" width="910.102" height="430.635"
            filterUnits="userSpaceOnUse" color-interpolation-filters="sRGB">
            <feFlood flood-opacity="0" result="BackgroundImageFix" />
            <feBlend mode="normal" in="SourceGraphic" in2="BackgroundImageFix" result="shape" />
            <feGaussianBlur stdDeviation="23.9577" result="effect1_foregroundBlur_3142_798" />
        </filter>
        <filter id="filter2_f_3142_798" x="-119.117" y="-184.109" width="686.257" height="344.867"
            filterUnits="userSpaceOnUse" color-interpolation-filters="sRGB">
            <feFlood flood-opacity="0" result="BackgroundImageFix" />
            <feBlend mode="normal" in="SourceGraphic" in2="BackgroundImageFix" result="shape" />
            <feGaussianBlur stdDeviation="26.6197" result="effect1_foregroundBlur_3142_798" />
        </filter>
        <filter id="filter3_f_3142_798" x="-110.047" y="-95.0112" width="654.855" height="299.332"
            filterUnits="userSpaceOnUse" color-interpolation-filters="sRGB">
            <feFlood flood-opacity="0" result="BackgroundImageFix" />
            <feBlend mode="normal" in="SourceGraphic" in2="BackgroundImageFix" result="shape" />
            <feGaussianBlur stdDeviation="23.9577" result="effect1_foregroundBlur_3142_798" />
        </filter>
        <radialGradient id="paint0_radial_3142_798" cx="0" cy="0" r="1" gradientUnits="userSpaceOnUse"
            gradientTransform="translate(461.157 334.397) rotate(-146.308) scale(652.848 988.968)">
            <stop stop-color="#A282FF" />
            <stop offset="1" stop-color="#A282FF" stop-opacity="0" />
        </radialGradient>
        <radialGradient id="paint1_radial_3142_798" cx="0" cy="0" r="1" gradientUnits="userSpaceOnUse"
            gradientTransform="translate(512.327 127.733) rotate(-162.514) scale(560.897 558.571)">
            <stop stop-color="#FF279C" />
            <stop offset="1" stop-color="#FF279C" stop-opacity="0" />
        </radialGradient>
        <radialGradient id="paint2_radial_3142_798" cx="0" cy="0" r="1" gradientUnits="userSpaceOnUse"
            gradientTransform="translate(535.885 120.664) rotate(-147.575) scale(456.123 455.094)">
            <stop stop-color="#6F9FFF" />
            <stop offset="1" stop-color="#FF6FCE" stop-opacity="0" />
        </radialGradient>
        <radialGradient id="paint3_radial_3142_798" cx="0" cy="0" r="1" gradientUnits="userSpaceOnUse"
            gradientTransform="translate(440.323 78.6064) rotate(-166.667) scale(272.403 271.194)">
            <stop stop-color="#FFCF54" />
            <stop offset="1" stop-color="#FFCF54" stop-opacity="0" />
        </radialGradient>
        <radialGradient id="paint4_radial_3142_798" cx="0" cy="0" r="1" gradientUnits="userSpaceOnUse"
            gradientTransform="translate(523.949 124.246) rotate(-146.352) scale(130.654 130.384)">
            <stop stop-color="#DCFF93" />
            <stop offset="1" stop-color="#DCFF93" stop-opacity="0" />
        </radialGradient>
        <radialGradient id="paint5_radial_3142_798" cx="0" cy="0" r="1" gradientUnits="userSpaceOnUse"
            gradientTransform="translate(519.551 125.565) rotate(-157.099) scale(234.662 233.825)">
            <stop stop-color="white" />
            <stop offset="1" stop-color="white" stop-opacity="0" />
        </radialGradient>
        <radialGradient id="paint6_radial_3142_798" cx="0" cy="0" r="1" gradientUnits="userSpaceOnUse"
            gradientTransform="translate(449.991 365.452) rotate(-146.306) scale(652.747 989.122)">
            <stop stop-color="#A282FF" />
            <stop offset="1" stop-color="#A282FF" stop-opacity="0" />
        </radialGradient>
        <radialGradient id="paint7_radial_3142_798" cx="0" cy="0" r="1" gradientUnits="userSpaceOnUse"
            gradientTransform="translate(501.184 158.763) rotate(-162.517) scale(560.815 558.654)">
            <stop stop-color="#FF279C" />
            <stop offset="1" stop-color="#FF279C" stop-opacity="0" />
        </radialGradient>
        <radialGradient id="paint8_radial_3142_798" cx="0" cy="0" r="1" gradientUnits="userSpaceOnUse"
            gradientTransform="translate(524.74 151.69) rotate(-147.573) scale(456.052 455.165)">
            <stop stop-color="#6F9FFF" />
            <stop offset="1" stop-color="#FF6FCE" stop-opacity="0" />
        </radialGradient>
        <radialGradient id="paint9_radial_3142_798" cx="0" cy="0" r="1" gradientUnits="userSpaceOnUse"
            gradientTransform="translate(506.015 153.22) rotate(-155.462) scale(405.701 404.462)">
            <stop stop-color="#FFCF54" />
            <stop offset="1" stop-color="#FFCF54" stop-opacity="0" />
        </radialGradient>
        <radialGradient id="paint10_radial_3142_798" cx="0" cy="0" r="1" gradientUnits="userSpaceOnUse"
            gradientTransform="translate(512.805 155.274) rotate(-146.351) scale(130.634 130.404)">
            <stop stop-color="#DCFF93" />
            <stop offset="1" stop-color="#DCFF93" stop-opacity="0" />
        </radialGradient>
        <radialGradient id="paint11_radial_3142_798" cx="0" cy="0" r="1" gradientUnits="userSpaceOnUse"
            gradientTransform="translate(508.408 156.594) rotate(-157.101) scale(234.626 233.861)">
            <stop stop-color="white" />
            <stop offset="1" stop-color="white" stop-opacity="0" />
        </radialGradient>
        <radialGradient id="paint12_radial_3142_798" cx="0" cy="0" r="1" gradientUnits="userSpaceOnUse"
            gradientTransform="translate(460.677 256.364) rotate(-146.306) scale(464.769 704.275)">
            <stop stop-color="#A282FF" />
            <stop offset="1" stop-color="#A282FF" stop-opacity="0" />
        </radialGradient>
        <radialGradient id="paint13_radial_3142_798" cx="0" cy="0" r="1" gradientUnits="userSpaceOnUse"
            gradientTransform="translate(502.271 107.653) rotate(-157.101) scale(167.058 166.514)">
            <stop stop-color="white" />
            <stop offset="1" stop-color="white" stop-opacity="0" />
        </radialGradient>
        <radialGradient id="paint14_radial_3142_798" cx="0" cy="0" r="1" gradientUnits="userSpaceOnUse"
            gradientTransform="translate(449.993 365.452) rotate(-146.306) scale(652.747 989.122)">
            <stop stop-color="#A282FF" />
            <stop offset="1" stop-color="#A282FF" stop-opacity="0" />
        </radialGradient>
        <radialGradient id="paint15_radial_3142_798" cx="0" cy="0" r="1" gradientUnits="userSpaceOnUse"
            gradientTransform="translate(501.186 158.763) rotate(-162.517) scale(560.814 558.653)">
            <stop stop-color="#27FFF2" />
            <stop offset="1" stop-color="#277EFF" stop-opacity="0" />
        </radialGradient>
        <radialGradient id="paint16_radial_3142_798" cx="0" cy="0" r="1" gradientUnits="userSpaceOnUse"
            gradientTransform="translate(524.742 151.69) rotate(-147.573) scale(456.052 455.165)">
            <stop stop-color="#6F9FFF" />
            <stop offset="1" stop-color="#6FCBFF" stop-opacity="0" />
        </radialGradient>
        <radialGradient id="paint17_radial_3142_798" cx="0" cy="0" r="1" gradientUnits="userSpaceOnUse"
            gradientTransform="translate(403.063 66.2064) rotate(-164.871) scale(210.816 209.968)">
            <stop stop-color="#FFCF54" />
            <stop offset="1" stop-color="#FFCF54" stop-opacity="0" />
        </radialGradient>
        <clipPath id="clip0_3142_798">
            <rect width="446" height="170" fill="white" transform="matrix(-1 0 0 1 446 0)" />
        </clipPath>
    </defs>
</svg>
